X:1
T:The Art of Fugue Contrapunctus II (A = 415 Hz)
T:BWV 1080
T:J. S. Bach
%%score { 1 | 2 } { 3 | 4 }
L:1/8
M:2/2
K:E
V:1 alto1 nm="Harp"
V:2 alto 
V:3 tenor nm="Harp"
V:4 bass 
V:1
 z8 | z8 | z8 | z8 | z8 | z8 | z8 | z8 | z8 | z8 | z8 | z8 | G4 c4 | B4 G4 | =G4 ^G2 ^A2 | %15
 B4- B>cB>^A | G8- | G8 | C8- | C8- | C>^B,C>E D>C=G>^G | ^A>Bc>E- E3/2D/4C/4^B,>C | ^B,2 z2 z4 | %23
 z8 | z8 | G4 c4 | B4 G4 | =G4 ^G2 ^A2 | B4- B>cB>^A | B2 g2- g>fe>d- | d>ed>c- c>dc>^B | c4 z4 | %32
 z8 | z3/2 g<=g^g/ c2 f2- | f>ed>c d2 g2 | c2 d2 D2 E2 | D2 d2- d>cB>^A | B>c d2- d>ed>c | %38
 g2 z2 z4 | z8 | z3/2 d<=d^d/ G2 c2- | c>BA>G A4- | A>GF>E F4- | F>EF>G A>Bc>d | e4 b4 | g4 e4 | %46
 d4 e2 f2 | g4- g>ag>f | ^e4 f2 g2- | g>cf>e =d>cB>A | G4 z4 | z8 | z8 | z8 | z3/2 f<e=d/ c>BA>G | %55
 A4 =d4- | d>c^B>c F2 =B2- | B2 A2 G4- | G>ef>e d>c^B>c | ^B>ga>g f>ed>e | f>ed>c- c>dc>^B | %61
 c2 z4 A2- | A>AG>F E>DC>^B, | C>cd>e f4- | f2 e>d e2 g2 | c4 d2 ^e2 | f6 c2- | c>dc>B- B>cB>A- | %68
 A>AG>F E>BA>G | =G3 z/ G/ ^G3 z/ G/ | c>d e2 d4- | d>g=g>^g d>^e f2- | f2 e4 d>c | ^B2 d2 G4- | %74
 G2 C4 F2- | F>AG>F- F>GF>E- | E>FE>D- D>ED>C- | C>^A,^B,>D G,>FE>D | C4 G4 | E4 C4 | ^B,4 C2 D2 | %81
 E4- E>FE>D | C8- | !fermata!C8 |] %84
V:2
 z8 | z8 | z8 | z8 | z8 | z8 | z8 | z8 | C4 G4 | E4 C4 | ^B,4 C2 D2 | E4- E>FE>D | C>DE>F G4- | %13
 G>FE>D- D>ED>C- | C>CD>E D2 C2 | B,2 D2 E2 D2- | D>^B,C>D E2 D2- | D>DC>^B, C2 =B,2- | %18
 B,2 A,>G, A,2 G,2- | G,>^E,F,>G, A,2 G,2 | =G,2 z2 z4 | z4 ^A,4 | G,>DE>F G4 | E4 C4 | %24
 ^B,4 C2 D2 | E4- E>G=G>^E | D4- D>G,C>B, | ^A,4 z3/2 D<^E=G/ | G4- G2 =G2 | G>FE>D C2 F2 | E4 D4 | %31
 C4 z4 | z3/2 A<GF/ E>DC>^B, | C2 c2 ^A2 ^B2 | c2 z4 B2- | B>AG>F G4 | =G2 B2 ^E2 G2 | %37
 G>AG>F E>GF>E- | E>D^E>=G ^G>^AB>G | ^A>BA>G A>G=G>^G | D4 ^E2 =G2 | G2 B,2 C2 F2 | %42
 B,>ED>C- C>DC>^B, | C6 F2 | B,4- B,>A,G,>F, | E,>EF>G A>Bc>A | B2 F2 B4- | B4 c2 B>A | G4 c4 | %49
 A4 F4 | ^E4 F2 G2 | A4- A>BA>G | F2 A2 G2 B2- | B>EF>G A>Bc>A | B4 E4- | E>=GF>E F2 ^G2 | A4 z4 | %57
 z3/2 F<^EF/ D2 =E2- | E>C^B,>C F4- | F2 E2 D2 G2- | G2 z2 z4 | z3/2 A<GF/- F>GF>E | D2 G,2 A,4 | %63
 G,2 G2 ^A2 ^B2 | c2 z2 z4 | z3/2 F<GA/ B4- | B2 A>G A2 G2 | F4 E4 | D4 C2 E2- | E>E D2- D>D C2 | %70
 z2 z3/2 c/ B>^AG>=G | G4 z2 d2- | d>Gc>B A>GF>E | D4- D>FE>D | C>B, A,>G, A,4 | G,6 ^A,2 | %76
 ^B,4 =G,4 | G,4 z2 ^B,2 | C>ED>C ^B,>G,^A,>B, | C2 B,4 A,2- | A,>A,G,>F, E,2 A,2 | G,4 A,2 G,2- | %82
 G,>^E,F,>G, A,4- | A,>G,A,>F, !fermata!G,4 |] %84
V:3
 z8 | z8 | z8 | z8 | G,4 C4 | B,4 G,4 | =G,4 ^G,2 ^A,2 | B,4- B,>CB,>A, | G,4- G,>FE>D | %9
 C>B,A,>G, A,>G,F,>E, | D,4 z3/2 G,<^A,^B,/ | C6 ^B,2 | C3 z/ D/ E4 | D2 B,4 G,2 | %14
 ^A,4 z3/2 D,<^E,=G,/ | G,6 =G,2 | G,2 ^A,>^B, C2 F,2- | F,>F,E,>D, E,2 ^E,2- | %18
 E,>C,D,>^E, F,2 B,,2- | B,,>G,,A,,>B,, C,>^B,, C,2 | D,2 z2 z4 | z4 =G,4 | %22
 D,2 z2 z3/2 G,<^A,^B,/ | C2 B,4 A,2- | A,>F,E,>D, G,4- | G,>C^B,>C =G,2 ^A,2- | A,>D,G,>F, E,4- | %27
 E,2 D,2 z4 | z3/2 F<ED/ =D2 ^D2 | G,4 ^A,2 ^B,2 | C4 z4 | z3/2 G,<^A,^B,/ C>DE>C | %32
 D2 D,2 E,2 F,2 | G,2 z2 z4 | z2 C2- C>B,A,>G, | A,2 ^A,2 ^B,2 C2- | C>B,^A,>G, A,2 D2 | G,4 C4 | %38
 B,4 G,4 | =G,4 ^G,2 ^A,2 | B,4- B,>CB,>^A, | G,4- G,>F,E,>D, | E,2 A,2 D,2 G,2 | %43
 C,2 D,>E, F,>G, A,2- | A,>G,F,>E, D,4 | E,2 z4 A,2- | A,>CB,>A, G,>F,E,>D, | E,>ED>E A,2 =D2- | %48
 D>=DC>B, A,>G,F,>^E, | F,>G, A,4 G,>A, | B,2 =D2 C4- | C2 C2 D2 E2- | E>E=D>C B,>A,G,>F, | %53
 E,2 z2 z4 | z2 B,,2 C,2 =D,2 | E,2 A,4 =D2 | E4 z3/2 B,<A,G,/ | F,2 =D2 ^B,2 C2- | C z z2 z4 | %59
 z2 C4 ^B,2 | C4 D4 | G,2 ^A,>^B, C2 z2 | z2 D,2 E,2 F,2 | G,4 z4 | z3/2 G,<^A,^B,/ C2 ^E,2 | %65
 F,2 z2 z4 | z8 | z8 | z2 G,4 C2- | C2 B,4 G,2- | G,2 =G,2 ^G,2 ^A,2 | B,4- B,>C ^B,>^A, | %72
 G,4 A,4- | A,>A,G,>F, E,>D,C,>^B,, | C,2 D,>^E, F,>=E, D,>C, | ^B,,4 C,4 | D,4 E,4 | D,4 z2 G,2 | %78
 G,4 z4 | z3/2 C,<D,E,/ F,>G,F,>E, | D,>F,E,>D, C,4 | ^B,,2 C,4 B,,2 | C,2 D,>^E, F,4- | %83
 F,>^E,F,>D, !fermata!E,4 |] %84
V:4
 C,4 G,4 | E,4 C,4 | ^B,,4 C,2 D,2 | E,4- E,>F,E,>D, | C,>D,C,>B,,- B,,>C,B,,>^A,,- | %5
 A,,>G,,^A,,>B,, C,>D,E,>C, | D,>E,D,>C, B,,>^A,,G,,>=G,, | G,,>G,=G,>^G, C,2 F,2- | %8
 F,>E,D,>C, ^B,,4 | C,2 C,,2 F,,>G,, A,,2- | A,,>A,,G,,>F,, E,,2 D,,2 | C,,>C,D,>E, F,>A,G,>F, | %12
 E,>F,E,>D, C,>D,E,>F, | G,4 E,4- | E,>E,D,>C, B,,2 ^A,,2 | z3/2 G,,<^A,,B,,/ C,2 D,2 | %16
 E,4- E,>D,C,>^B,, | C,4- C,>B,,A,,>G,, | A,,4- A,,>G,,F,,>^E,, | E,,4- E,,3 E,, | D,,8- | %21
 D,,4 D,4 | G,,2 z2 z4 | z3/2 C,<D,E,/ F,>G,F,>E, | D,>A,G,>F, E,>D,C,>^B,, | C,2 E,2 ^A,,2 D,2 | %26
 G,,4 C,4- | C,>^A,,D,>C, B,,2 A,,2 | G,,2 z2 z4 | z8 | C,4 G,4 | E,4 C,4 | ^B,,4 C,2 D,2 | %33
 E,4- E,>F,E,>D, | C,2 z2 z4 | z2 F,2- F,>E,D,>C, | D,4 z4 | z8 | z8 | z8 | z8 | z8 | z8 | z8 | %44
 z8 | z8 | z8 | z8 | z8 | z8 | z3/2 =D,<C,B,,/ A,,>G,,F,,>^E,, | F,,>F,^E,>F, B,,4- | B,,4 E,4 | %53
 C,4 A,,4 | G,,4 A,,2 B,,2 | C,4- C,>=D,C,>B,, | A,,>A,G,>A, D,2 ^E,2 | F,4- F,>E,D,>C, | A,8 | %59
 G,2 z2 z4 | C,4 G,4 | E,4 C,4 | ^B,,4 C,2 D,2 | E,4- E,>F,E,>D, | C,4- C,>=D,C,>B,, | %65
 A,,4- A,,>B,,A,,>G,, | F,,>C,D,>^E, F,>G,F,>=E, | D,2 G,2 C,2 F,2 | ^B,,4 C,4 | D,4 E,4 | %70
 ^A,,4 B,,4- | B,,2 C,2 D,4 | E,2 C,2 F,4- | F,2 ^B,,2 C,2 G,,2 | A,,4- A,,2 F,,2 | G,,8- | G,,8- | %77
 G,,4- G,,>A,,G,,>F,,- | F,,>G,,F,,>E,,- E,,>F,,E,,>D,, | C,,2 z2 z3/2 D,,<E,,F,,/ | %80
 G,,4 z3/2 A,,<G,,F,,/ | G,,>E,,D,,>C,, F,,2 G,,2 | A,,>B,,A,,>G,, F,,>G,,A,,>F,, | %83
 C,4 !fermata!C,,4 |] %84

